!!!COM: Bach, Johann Sebastian
!!!CDT: 1685/3//-1750/7/28/
!!!OTL@@DE: Freu' dich sehr, O meine Seele
!!!AGN: 4-Part Chorale
!!!SCT: BH 282
!!!SCT: BWV 25
**harm	**root	**kern	**kern	**kern	**kern
!	!	!bass	!tenor	!alto	!soprno
*	*Iorgan	*Iorgan	*Iorgan	*Iorgan	*Iorgan
*M4/4	*M4/4	*M4/4	*M4/4	*M4/4	*M4/4
*met(c)	*met(c)	*met(c)	*met(c)	*met(c)	*met(c)
*MM60	*MM60	*MM60	*MM60	*MM60	*MM60
*k[b-]	*k[b-]	*k[b-]	*k[b-]	*k[b-]	*k[b-]
*F:	*F:	*F:	*F:	*F:	*F:
*>[A,A,B]	*>[A,A,B]	*>[A,A,B]	*>[A,A,B]	*>[A,A,B]	*>[A,A,B]
*>A	*>A	*>A	*>A	*>A	*>A
=1-	=1-	=1-	=1-	=1-	=1-
I	4CC	4F	4a	4cc	4ff
V	4GG	4c	4e	4cc	4gg
I	4CC	4f	4f	4cc	4aa
Vb	4GG	4e	4g	4cc	4gg
=2	=2	=2	=2	=2	=2
vi	4AA	4d	8a	4dd	4ff
.	.	.	8b	.	.
V	4GG	4c	4cc	4g	4ee
V/V	4DD	4G	8cc	4g	4dd
.	.	.	8b	.	.
V;	4GG;	4c;	4e;	4g;	4cc;
=3	=3	=3	=3	=3	=3
Ib	4CC	4A	4f	4cc	4ff
ii	4DD	4G	4b-	8dd	4gg
.	.	.	.	8ee	.
I	4CC	4F	8cc	8ff	4aa
.	.	.	8f	8cc	.
Vb	4GG	4E	[4g	4cc	8gg
.	.	.	.	.	16aa
.	.	.	.	.	16bb-
=4	=4	=4	=4	=4	=4
I	4CC	4F	8g]	4cc	4aa
.	.	.	8f	.	.
V	4GG	4C	8f	4cc	8.gg
.	.	.	8e	.	.
.	.	.	.	.	16ff
I;	2CC;	2F;	2a;	2cc;	2ff;
*>B	*>B	*>B	*>B	*>B	*>B
=5:|!	=5:|!	=5:|!	=5:|!	=5:|!	=5:|!
I	4CC	4f	4f	4cc	4aa
IVb	4FF	4d	4f	8dd	4bb-
.	.	.	.	16ee-	.
.	.	.	.	16ff	.
I7b	4CC	4A	4f	4ee-	4ccc
IV	4FF	4B-	8f	4dd	4bb-
.	.	.	8g	.	.
=6	=6	=6	=6	=6	=6
V7b/ii	4AA	4F#	8a	4cc	4aa
.	.	.	8d	.	.
ii	4DD	4G	8d	8b-	4gg
.	.	.	8e	16dd	.
.	.	.	.	16cc#	.
VI;	2AA;	2D;	2f#;	2dd;	2aa;
!!linebreak: 2
=7	=7	=7	=7	=7	=7
Ib	4CC	4A	8f	4cc	4ccc
.	.	.	8g	.	.
I	4CC	4F	4a	4ff	4ccc
IV	4FF	4B-	8b-	4ff	4ddd
.	.	.	8a	.	.
V	4GG	4c	4g	4ee	4ccc
=8	=8	=8	=8	=8	=8
IVb	4FF	8d	4f	4dd	4bb-
.	.	8e	.	.	.
I	4CC	4f	4f	8cc	4aa
.	.	.	.	8b	.
V;	2GG;	2c;	2e;	2cc;	2gg;
=9	=9	=9	=9	=9	=9
I	4CC	4f	8f	4cc	4aa
.	.	.	8g	.	.
I	4CC	4F	4a	8ff	4ccc
.	.	.	.	8ee	.
ii	4DD	4G	4b-	8dd	4bb-
.	.	.	.	8ee	.
Ib	4CC	4A	8cc	4ff	8aa
.	.	.	8c	.	8gg
=10	=10	=10	=10	=10	=10
IV7	4FF	4B-	8d	4dd	4ff
.	.	.	8a	.	.
Vb/V	4DD	4B	8g	4dd	4gg
.	.	.	8f	.	.
iiib	4EE	4c	2e	4ee	2aa
Vb/vi	4EE	4c#	.	4a	.
=11	=11	=11	=11	=11	=11
vi;	2AA;	2d;	2d;	2a;	2ff;
iiiob	4EE	4c	4e-	8cc	4aa
.	.	.	.	8dd	.
V7/IV	4CC	4F	4A	4ee-	4ccc
=12	=12	=12	=12	=12	=12
ii	4DD	4G	4B-	8dd	4bb-
.	.	.	.	8ee	.
Ib	4CC	8A	8c	4ff	4aa
.	.	8B-	8d	.	.
V	4GG	8c	4e	4cc	4gg
.	.	8B-	.	.	.
Ib	4CC	8A	4f	4cc	4ff
.	.	8F	.	.	.
=13	=13	=13	=13	=13	=13
V	2GG	2C	4f	2cc	2gg
.	.	.	4e	.	.
I;	2CC;	2F;	2a;	2cc;	2ff;
==	==	==	==	==	==
*-	*-	*-	*-	*-	*-
!!chor2scor: -l 2 -s 0.6 -o %b.pmx
!!!YEC: Copyright 1994, David Huron
!!!YEC: Changes/Additions 2001 by Craig Stuart Sapp
!!!YEN: United States of America
!!!SMA: 371 Bach Chorales, edited by Ludwig Erk, C.F. Peters
!!!PDT: 1850, 1865
!!!ONB: Harmony and Root analysis done manually
